app/dist/common/images/shenyang-machine-t.svg

<svg height="18" viewBox="0 0 18 18" width="18" xmlns="http://www.w3.org/2000/svg"><path d="m0 0h18v18h-18z" fill="#f0f3fa"/><path d="m5.07 6h2.35l-2.07 6h-2.35zm2.83 0h2.36l-2.06 6h-2.36l2.07-6zm2.85 0h2.35l-2.06 6h-2.36zm2.83 0 1.42 6h-3.47z" fill="#d22d27"/></svg>

<!-- by TradingView --><svg width="18" height="18" viewBox="0 0 18 18" xmlns="http://www.w3.org/2000/svg"><path fill="#F0F3FA" d="M0 0h18v18H0z"/><path d="M5.07 6h2.35l-2.07 6H3l2.07-6ZM7.9 6h2.36L8.2 12H5.84l2.07-6ZM10.75 6h2.35l-2.06 6H8.68l2.07-6ZM13.58 6 15 12h-3.47l2.05-6Z" fill="#D22D27"/></svg>
